X:1
T:Passacaglia (riktig tempo)
T:Passacaglia
T:G. F. Handel
C:Handel
%%score { 1 | 2 }
L:1/8
Q:1/4=120
M:4/4
K:C
V:1 treble nm="Piano" snm="Pno."
V:2 bass 
V:1
 z8 | z8 | cc'bc' ac'gc' | fc'ec' dc'cc' | Bbab gbfb | ebdb cbBb | Aaga faea | daca BaAa | %8
 a2 ^g^f g2- ga | a8 | c'cdc ecfc | gcac bcc'c | bBcB dBeB | fBgB aBbB | aABA cAdA | eAfA gAaA | %16
 a2 ^g^f g2- ga | a8 | c'c''b'c'' a'c''g'c'' | f'c''e'c'' d'c''c'c'' | bb'a'b' g'b'f'b' | %21
 e'b'd'b' c'b'bb' | aa'g'a' f'a'e'a' | d'a'c'a' ba'aa' | a'2 ^g'^f' g'2- g'a' | a'8 | %26
 c''c'd'c' e'c'f'c' | g'c'a'c' b'c'c''c' | b'bc'b d'be'b | f'bg'b a'bb'b | a'aba c'ad'a | %31
 e'af'a g'aa'a | a'2 ^g'^f' g'2- g'a' | a'8 | ccc'c bcac | gcfc ecdc | BBbB aBgB | fBeB dBcB | %38
 AAaA gAfA | eAdA cABA | A2 ^G^F G2- GA | A8 | c''c'''b'b'' a'a''g'g'' | f'f''e'e'' d'd''c'c'' | %44
 bb'aa' gg'ff' | ee'dd' cc'Bb | AaGg FfEe | DdCc B,BA,A | A2 ^G^F G2- GA | A8 | cc'bc' ac'gc' | %51
 fc'ec' dc'cc' | Bbab gbfb | ebdb cbBb | Aaga faea | daca BaAa | a2 ^g^f g2- ga | a8 | c'cdc ecfc | %59
 gcac bcc'c | bBcB dBeB | fBgB aBbB | aABA cAdA | eAfA gAaA | a2 ^g^f g2- ga | a8 | cc'bc' ac'gc' | %67
 fc'ec' dc'cc' | Bbab gbfb | ebdb cbBb | Aaga faea | daca BaAa | a2 ^g^f g2- ga | a8 |] %74
V:2
 A,,A,EC ACEC | A,,A,EC ACEC | A,,A,EC ACEC | D,,D,A,F, DF,A,F, | G,,G,DB, GB,DB, | %5
 C,,C,G,E, CE,G,E, | F,,F,CA, FA,CA, | D,,D,A,F, DF,A,F, | E,,E,B,^G, EG,B,G, | A,,A,EC ACEC | %10
 A,,A,EC ACEC | D,,D,A,F, DF,A,F, | G,,G,DB, GB,DB, | C,,C,G,E, CE,G,E, | F,,F,CA, FA,CA, | %15
 D,,D,A,F, DF,A,F, | E,,E,B,^G, EG,B,G, | A,,A,EC ACEC | A,,A,EC ACEC | D,,D,A,F, DF,A,F, | %20
 G,,G,DB, GB,DB, | C,,C,G,E, CE,G,E, | F,,F,CA, FA,CA, | D,,D,A,F, DF,A,F, | E,,E,B,^G, EG,B,G, | %25
 A,,A,EC ACEC | A,,A,EC ACEC | D,,D,A,F, DF,A,F, | G,,G,DB, GB,DB, | C,,C,G,E, CE,G,E, | %30
 F,,F,CA, FA,CA, | D,,D,A,F, DF,A,F, | E,,E,B,^G, EG,B,G, | A,,A,EC ACEC | A,,A,EC ACEC | %35
 D,,D,A,F, DF,A,F, | G,,G,DB, GB,DB, | C,,C,G,E, CE,G,E, | F,,F,CA, FA,CA, | D,,D,A,F, DF,A,F, | %40
 E,,E,B,^G, EG,B,G, | A,,A,EC ACEC | A,,A,EC ACEC | D,,D,A,F, DF,A,F, | G,,G,DB, GB,DB, | %45
 C,,C,G,E, CE,G,E, | F,,F,CA, CA,CA, | D,,D,A,F, DF,A,F, | E,,E,B,^G, EG,B,G, | A,,A,EC ACEC | %50
 A,,A,EC ACEC | D,,D,A,F, DF,A,F, | G,,G,DB, GB,DB, | C,,C,G,E, CE,G,E, | F,,F,CA, CA,CA, | %55
 D,,D,A,F, DF,A,F, | E,,E,B,^G, EG,B,G, | A,,A,EC ACEC | A,,A,EC ACEC | D,,D,A,F, DF,A,F, | %60
 G,,G,DB, GB,DB, | C,,C,G,E, CE,G,E, | F,,F,CA, FA,CA, | D,,D,A,F, DF,A,F, | E,,E,B,^G, EG,B,G, | %65
 A,,A,EC ACEC | [A,,A,]8 | [D,,D,]8 | [G,,G,]8 | [C,,C,]8 | [F,,F,]8 | [D,,D,]8 | [E,,E,]8 | %73
 [A,,A,]8 |] %74

